X:1
T:Title
%%score 1 2 3
L:1/8
Q:1/4=80
M:3/8
K:Ab
V:1 treble nm="French Horn, Soprano"
V:2 treble nm="Grand Piano, Staff-1"
V:3 bass nm="Choir Pad, Christmas, Glad Christmas"
V:1
 cAA | AFF | EAc | B2 B | cAA | AFF/F/ | EcB | A2 z | [GB][GB][GB] | [Ac][Ac][Ac] | [Bd][Bd][Ac] | %11
w: By~Katherine~McK.~Irvine * *|||||||||||
 [GB]2 z | [Ac][EB][EA] | [DF][DB][Fd] | [Ac][Bd][GB] | A3- | A3 |] %17
w: ||||||
V:2
 [EAc][EA][EA] | [FA][DF][DF] | [CE][CEA][EAc] | [EGB]2 [EGB] | [EAc][EA][EA] | [FA][DF][DF] | %6
 [CE][Ec][DB] | [CA]2 z | [GB]/e/[GB]/e/[GB]/e/ | [Ac]/e/[Ac]/e/[Ac]/e/ | [Bd]/e/[Bd]/e/[Ac]/e/ | %11
 [GB]/e/=d/e/_d/B/ | [EAc][EGB][EA] | [DF][DB][Fd] | [EAc][EBd][DGB] | [CA]3- | [CA]3 |] %17
V:3
 [A,,A,][C,A,][C,A,] | [D,A,][D,A,][D,A,] | [A,,A,]2 [A,,A,] | [E,,E,]2 [E,,E,] | %4
 [A,,A,][C,A,][C,A,] | [D,A,][C,E,]/G,/[C,E,]/G,/ | E,2 [E,,E,] | [A,,E,]2 z | E,,[E,B,][E,B,] | %9
 A,,[E,A,][E,A,] | [E,G,][E,G,][E,A,] | [E,B,]2 z | A,,B,,C, | D,2 [B,,B,] | [E,,E,]G,,[E,,E,] | %15
 [A,,E,]3- | [A,,E,]3 |] %17

